X:1
T:Choose Ye Today
T:William Howard Doane (1832-1915)
T:Choose Ye Today
T:Public Domain
T:Public Domain
C:William Howard Doane (1832-1915)
Z:Public Domain
%%score ( 1 2 ) 3
L:1/8
M:4/4
K:Eb
V:1 treble 
V:2 treble 
V:3 bass 
V:1
 [EB]2 | [EB]2 [EA]>[EG] [EG]2 [DF]E | [EG] [GB]3- [GB]4 | [Ac]4 [Ad]2 [Ae]2 | [GB]6 [GB]2 | %5
w: 1.~A|bless- ing for you— will you|it? Choose *|ye to- day;|A word|
w: 2.~A|death to be feared— will you|it? Choose *|ye to- day;|A voice|
w: 3.~The|cross of your Lord— will you|it? Choose *|ye to- day:|There’s life|
w: 4.~The|bond- age of sin— will you|it? Choose *|ye to- day:|The wa-|
 [GB]2 [FA]>[EG] [FG]2 [FA][FG] | [EG] [Ec]3- [Ec]4 | F4 [Fd]3 [Ec] | [DB]8 | %9
w: from the heart— will you speak|it? Choose *|ye to- day:|you|
w: that in- vites— will you hear|it? Choose *|ye to- day.|is|
w: in that cross— will you share|it? Choose *|ye to- day:|will|
w: ter of life— will you take|it? Choose *|ye to- day.|to|
 [DB]2 [DF]>[EG] [FA]2 [Bd]>[Ac] | [GB]2 E>[DF] [EG]4 | [DB]2 [DF]>[EG] [FA]2 [Fd]>[Fc] | %12
w: be- lieve, or your Sav- ior|ne- glect? Will you|ceive, or His mer- cy re-|
w: the por- tal and nar- row|the way; En- ter,|soul, and be saved while you|
w: your time of pro- ba- tion|be o’er, Then will|Spir- it en- treat you no|
w: the arms that are o- pen|for you, Hide in|wounds that by faith you may|
 [^Fc]2 [GB]>[F=A] [GB]4 | [EG]2 [EG][EG] [FG] [FA]2 [FG] | [EG]2 [Fc][Gd] [Ge]4 | %15
w: ject? Pause, ere you|an- swer, oh, pause and re-|flect— Choose ye to-|
w: may; Think what may|hang on a mo- ment’s de-|lay— Choose ye to-|
w: more, Je- sus no|long- er will stand at the|door— Choose ye to-|
w: view; Death ere the|mor- row your steps may pur-|sue— Choose ye to-|
 [EB]4 [DB]3 [DB] | [EB]6 |] %17
w: day. * *||
w: day. * *||
w: day. * *||
w: day. * *||
V:2
 x2 | x7 E | x8 | x8 | x8 | x8 | x8 | F4 x4 | x8 | x8 | x2 E3/2 x9/2 | x8 | x8 | x8 | x8 | x8 | %16
w: |take||||||Will|||re-||||||
w: |fear||||||Straight|||poor||||||
w: |bear||||||Soon|||the||||||
w: |break||||||Come|||the||||||
 x6 |] %17
w: |
w: |
w: |
w: |
V:3
 [E,G,]2 | [E,G,]2 [E,C]>[E,B,] [E,B,]2 [E,A,][E,G,] | [E,B,] [E,E]3- [E,E]4 | %3
 [A,E]4 [A,=B,]2 [A,C]2 | [E,E]6 [E,E]2 | [E,E]2 [E,B,]>[E,B,] [D,=B,]2 [D,B,][D,B,] | %6
 [C,C] [C,G,]3- [C,G,]4 | [F,D]4 [F,B,]3 [F,=A,] | [B,,B,]8 | %9
 [B,,B,]2 [B,,B,]>[B,,B,] [B,,B,]2 [B,,B,]>[B,,B,] | [E,B,]2 [G,B,]>[F,B,] [E,B,]4 | %11
 [B,,B,]2 [B,,A,]>[B,,G,] [B,,F,]2 [B,,A,]>[B,,A,] | [E,=A,]2 [E,B,]>[E,C] [E,B,]4 | %13
 [E,B,]2 [E,B,][E,B,] [D,=B,] [D,B,]2 [D,B,] | [C,C]2 [E,C][G,=B,] [C,C]4 | %15
 [B,,G,]4 [B,,A,]3 [B,,A,] | [E,G,]6 |] %17

